usr/share/icons/biglinux-icons-material/16/actions/restoration.svg

<svg xmlns="http://www.w3.org/2000/svg" viewBox="0 0 16 16"><path d="M3 2v6h10V5l-3-3H3Zm1 1h5v3h3v1H4V3ZM3 9v5h10V9H3Zm1 1h8v3H4v-3Z" style="fill:currentColor;fill-opacity:1;stroke:none;color:#dedede"/></svg>

<!DOCTYPE svg>
<svg viewBox="0 0 16 16" version="1.1" xmlns="http://www.w3.org/2000/svg">
    <defs>
        <style type="text/css" id="current-color-scheme">
            .ColorScheme-Text {
                color:#dedede;
            }
        </style>
    </defs>
    <path class="ColorScheme-Text" style="fill:currentColor; fill-opacity:1; stroke:none" d="M 3 2 L 3 7 L 3 8 L 13 8 L 13 7 L 13 5 L 10 2 L 3 2 Z M 4 3 L 9 3 L 9 6 L 12 6 L 12 7 L 4 7 L 4 3 Z M 3 9 L 3 10 L 3 14 L 13 14 L 13 10 L 13 9 L 3 9 Z M 4 10 L 12 10 L 12 13 L 4 13 L 4 10 Z"/>
</svg>
